assets/images/arr_bottom_white.svg

<svg width="14" height="24" viewBox="0 0 14 24" fill="none" xmlns="http://www.w3.org/2000/svg">
<path d="M7.05776 24C7.30601 23.9903 7.59294 23.8886 7.77391 23.7191L13.6766 18.1874C14.0149 17.8125 14.1546 17.0938 13.7634 16.6748C13.3782 16.2621 12.6311 16.2744 12.2444 16.6855L8.09941 20.575L8.09941 1.52743C8.09941 0.954621 7.63304 0.490234 7.05776 0.490234C6.48248 0.490234 6.01611 0.954621 6.01611 1.52743L6.01611 20.575L1.87116 16.6855C1.5151 16.3316 0.741715 16.2662 0.352083 16.6748C-0.0375135 17.0833 0.0869667 17.8279 0.438926 18.1874L6.34161 23.7191C6.54361 23.9084 6.78062 24.0006 7.05776 24Z" fill="white"/>
</svg>

<svg width="14" height="24" fill="none" xmlns="http://www.w3.org/2000/svg"><path d="M7.058 24a1.17 1.17 0 00.716-.28l5.903-5.533c.338-.375.478-1.093.086-1.512-.385-.413-1.132-.4-1.519.01L8.1 20.576V1.527A1.04 1.04 0 007.058.49a1.04 1.04 0 00-1.042 1.037v19.048l-4.145-3.89c-.356-.353-1.13-.419-1.519-.01-.39.408-.265 1.153.087 1.512l5.903 5.532a1 1 0 00.716.281z" fill="#fff"/></svg>
